Other-Icons/16x16-light/places/folder-publicshare.svg

<?xml version="1.0" encoding="UTF-8" standalone="no"?>
<svg
   xmlns:dc="http://purl.org/dc/elements/1.1/"
   xmlns:cc="http://creativecommons.org/ns#"
   xmlns:rdf="http://www.w3.org/1999/02/22-rdf-syntax-ns#"
   xmlns:svg="http://www.w3.org/2000/svg"
   xmlns="http://www.w3.org/2000/svg"
   xmlns:sodipodi="http://sodipodi.sourceforge.net/DTD/sodipodi-0.dtd"
   xmlns:inkscape="http://www.inkscape.org/namespaces/inkscape"
   viewBox="0 0 16 16"
   version="1.1"
   id="svg6"
   sodipodi:docname="folder-publicshare.svg"
   inkscape:version="0.92.4 5da689c313, 2019-01-14">
  <metadata
     id="metadata10">
    <rdf:RDF>
      <cc:Work
         rdf:about="">
        <dc:format>image/svg+xml</dc:format>
        <dc:type
           rdf:resource="http://purl.org/dc/dcmitype/StillImage" />
      </cc:Work>
    </rdf:RDF>
  </metadata>
  <sodipodi:namedview
     pagecolor="#ffffff"
     bordercolor="#666666"
     borderopacity="1"
     objecttolerance="10"
     gridtolerance="10"
     guidetolerance="10"
     inkscape:pageopacity="0"
     inkscape:pageshadow="2"
     inkscape:window-width="640"
     inkscape:window-height="506"
     id="namedview8"
     showgrid="false"
     inkscape:zoom="14.75"
     inkscape:cx="8"
     inkscape:cy="8"
     inkscape:window-x="609"
     inkscape:window-y="314"
     inkscape:window-maximized="0"
     inkscape:current-layer="svg6" />
  <defs
     id="defs3051">
    <style
       type="text/css"
       id="current-color-scheme">
      .ColorScheme-Text {
        color:#4d4d4d;
      }
      </style>
  </defs>
  <path
     style="opacity:1;fill:#272d3a;fill-opacity:1;stroke:none"
     d="M 6.5 2 C 5.115 2 4 3.115 4 4.5 C 4 5.885 5.115 7 6.5 7 C 7.885 7 9 5.885 9 4.5 C 9 3.115 7.885 2 6.5 2 z M 6.5 3 C 7.331 3 8 3.669 8 4.5 C 8 5.331 7.331 6 6.5 6 C 5.669 6 5 5.331 5 4.5 C 5 3.669 5.669 3 6.5 3 z M 12 4 C 10.892 4 10 4.8919999 10 6 C 10 7.1080001 10.892 8 12 8 C 13.108 8 14 7.1080001 14 6 C 14 4.8919999 13.108 4 12 4 z M 12 5 C 12.554 5 13 5.4459999 13 6 C 13 6.5540001 12.554 7 12 7 C 11.446 7 11 6.5540001 11 6 C 11 5.4459999 11.446 5 12 5 z M 6.5 8 C 4.0070124 8 2 10.007012 2 12.5 L 2 13 L 2 14 L 2.2753906 14 L 3 14 L 3.3457031 14 L 9.6542969 14 L 10.724609 14 L 11 14 L 11 13 L 11 12.5 C 11 10.007012 8.9929876 8 6.5 8 z M 6.5 9 C 8.4389876 9 10 10.561012 10 12.5 L 10 13 L 3 13 L 3 12.5 C 3 10.561012 4.5610124 9 6.5 9 z M 12 9 C 11.445274 9 10.933115 9.1595125 10.488281 9.4199219 C 10.731419 9.6567988 10.95369 9.9149924 11.144531 10.197266 C 11.404642 10.073918 11.69198 10 12 10 C 13.108 10 14 10.892 14 12 L 11.900391 12 C 11.965505 12.323084 12 12.657168 12 13 L 13.724609 13 L 14.818359 13 L 15 13 L 15 12 C 15 10.338 13.662 9 12 9 z "
     class="ColorScheme-Text"
     id="path4" />
</svg>

<svg xmlns="http://www.w3.org/2000/svg" viewBox="0 0 16 16"><path d="M6.5 2A2.495 2.495 0 0 0 4 4.5C4 5.885 5.115 7 6.5 7S9 5.885 9 4.5 7.885 2 6.5 2zm0 1C7.331 3 8 3.669 8 4.5S7.331 6 6.5 6 5 5.331 5 4.5 5.669 3 6.5 3zM12 4c-1.108 0-2 .892-2 2s.892 2 2 2 2-.892 2-2-.892-2-2-2zm0 1c.554 0 1 .446 1 1s-.446 1-1 1-1-.446-1-1 .446-1 1-1zM6.5 8A4.49 4.49 0 0 0 2 12.5V14h9v-1.5A4.49 4.49 0 0 0 6.5 8zm0 1c1.939 0 3.5 1.561 3.5 3.5v.5H3v-.5C3 10.561 4.561 9 6.5 9zM12 9c-.555 0-1.067.16-1.512.42.243.237.466.495.657.777A1.996 1.996 0 0 1 14 12h-2.1c.066.323.1.657.1 1h3v-1c0-1.662-1.338-3-3-3z" fill="#272d3a" color="#4d4d4d"/></svg>
